X: 243
T: East of Killarney (slide)
C: BB 11/06
N: 052186
L: 1/8
M: 12/8
R: jig
Q: 1/4=180
K: G
D| "Am"EcB "D"AFA "C"c2B "G"B2G | "Em"EFG "Am7"AGA "D7"dcA "G"B2D |
"Am"EcB "D"AFA "C"c2B "G"B2c | "D7"ded cAF "G"G3 G2 :|
e|"Em"edB "D"def "G"g2d d^cd | "Am"=cBc a2a "G"BAB g3 |
"Em"edB "D"def "G"g2a b2g | "D"fef def "G"g3 g2 :|
%%%%%%%%%%%%%%%%%%%%%%%
